X: 4153
T: Earl of Dalhousies    Reel
C: By Nath. Gow
N: The title needs an apostrophy in "Dalhousies".
%R: reel
B: Niel Gow & Sons "A Fourth Collection of Strathspey Reels, etc." v.4 p.15 #3
Z: 2022 John Chambers <jc:trillian.mit.edu>
M: C
L: 1/8
K: Eb
% - - - - - - - - - -
% Voice 1 reformatted for 2 8-bar lines, for compactness and proofreading.
V: 1 staves=2
g |\
e2ge B<B ge | .f>(aTg)f eccf | e2ge B(aTgf) | e>cBG E/E/E Eg ||\
e2ge B<B ge | faTgf eccf | e2g>e f>de>B | c<eB>G E/E/E E |]
[| c |\
BEGB c2-Tc>e | BcGB cFFc | BEGB (cde)B | c<eB>G E/E/E E>c ||\
BEGB c2-~c>e | BeGB cFFc | BG.A.B .c.d.e.f | geBG E/E/E E |]
% - - - - - - - - - -
% Voice 2 preserves the staff layout in the book.
V: 2 clef=bass middle=d
z | e2e2 e2e2 | f2g2 c'2a2 | g2e2 d2B2 | A2B2 E2E2 || e2e2 e2e2 |
f2g2 c2A2 | G2e2 B2G2 | A2G2 E2E |] [| z | e2e2 a2a2 | g2e2 f2f2 | e2e2 a2g2 |
a2b2 e2e2 || e2e2 a2a2 | g2e2 f2f2 | e2e2 a2a2 | b2B2 e2E |]


